!!!COM:	W.A. Mozart
!!!OTL:	Quartet No.2 K.155
**kern	**kern	**kern	**dynam	**kern
*part4	*part3	*part2	*part2	*part1
*staff4	*staff3	*staff2	*	*staff1
*I"Cello	*I"Viola	*I"Violin II	*	*I"Violin I
*I'Vc.	*I'Vla.	*I'Vln. II	*	*I'Vln. I
*clefF4	*clefC3	*clefG2	*	*clefG2
*k[f#c#]	*k[f#c#]	*k[f#c#]	*	*k[f#c#]
*D:	*D:	*D:	*	*D:
*M2/4	*M2/4	*M2/4	*	*M2/4
8r	8r	8A	.	8a
=1	=1	=1	=1	=1
8r	8r	8dL	.	8ddL
8D	8d	8f#J	.	8ff#J
8EL	8dL	8gL	.	8ggL
8F#J	8dJ	8aJ	.	8aaJ
=2	=2	=2	=2	=2
4G	4d	(8a#XL	.	(8aa#XL
.	.	8bJ)	.	8bbJ)
4E	8r	8g'L	.	8gg'L
.	8g	8e'J	.	8ee'J
=3	=3	=3	=3	=3
4.A	(8f#L	(8dL	.	(8ddL
.	8eJ)	8c#J)	.	8cc#J)
.	8d'L	8B'L	.	8b'L
8G	8c#'J	8A'J	.	8a'J
=4	=4	=4	=4	=4
(8GL	4d	4d	.	4.dd
8F#J)	.	.	.	.
8E'L	4r	8r	.	.
8D'J	.	8d	.	8f# 8a
=5	=5	=5	=5	=5
*	*	*	*	*^
(8EL	8r	(8c#L	.	4a	8gL
8DJ	8A	8dJ	.	.	8f#
8EL	4A	8c#L	.	8aL	8g
8C#J)	.	8eJ)	.	8aJ	8eJ
=6	=6	=6	=6	=6	=6
8DL	8r	8dL	.	4a	8f#L
8C#J	8A	8AJ	.	.	8e
8DL	4A	8dL	.	8aL	8f#
8DJ	.	8BJ	.	8aJ	8dJ
=7	=7	=7	=7	=7	=7
4AA	4A	8c#L	.	4a	(8eL
.	.	8BJ	.	.	8d)
4AA	4A	8c#L	.	8aL	(8e
.	.	8dJ	.	8aJ	8f#J)
=8	=8	=8	=8	=8	=8
8AA'L	4A	4c#	.	4a	4e
(8GJ	.	.	.	.	.
8F#L)	4r	8r	.	8r	4r
8EJ	.	8A	.	8a	.
*	*	*	*	*v	*v
=9	=9	=9	=9	=9
8F#'L	8r	8dL	.	8ddL
8D'J	4d	8f#J	.	8ff#J
8E'L	.	8gL	.	8ggL
8F#'J	8d	8aJ	.	8aaJ
=10	=10	=10	=10	=10
4G	4d	(8a#XL	.	(8aa#XL
.	.	8bJ)	.	8bbJ)
4E	8r	8g'L	.	8gg'L
.	8g	8e'J	.	8ee'J
=11	=11	=11	=11	=11
4.A	(8f#L	(8dL	.	(8ddL
.	8eJ)	8c#J)	.	8cc#J)
.	8d'L	8B'L	.	8b'L
8G	8c#'J	8A'J	.	8a'J
=12	=12	=12	=12	=12
*	*	*	*	*^
(8GL	4d	4d	.	4.dd	4r
8F#J)	.	.	.	.	.
8E'L	4r	8r	.	.	8r
8D'J	.	8d	.	8a	8f#
=13	=13	=13	=13	=13	=13
(8EL	8r	(8c#L	.	2a	8gL
8DJ	8A	8dJ	.	.	8f#J
8EL	4A	8c#L	.	.	8gL
8C#J)	.	8eJ)	.	.	8eJ
=14	=14	=14	=14	=14	=14
(8DL	8r	(8dL	.	2a	8f#L
8C#J	8A	8AJ	.	.	8eJ
8DL)	4A	8dL	.	.	8f#L
8D'J	.	8BJ)	.	.	8dJ
=15	=15	=15	=15	=15	=15
4AA	4A	(8c#L	.	2a	(8eL
.	.	8dJ)	.	.	8f#J)
4AA	4G	(8eL	.	.	(8gL
.	.	8c#J)	.	.	8eJ)
=16	=16	=16	=16	=16	=16
4D	4F#	4A 4d	.	4a	4d
4r	4r	4r	.	8r	4r
.	.	.	.	8a	.
=17	=17	=17	=17	=17	=17
4D	4f#	4a	.	12ddL	4d
.	.	.	.	12a	.
.	.	.	.	12f#J	.
4r	4r	4r	.	12dL	4r
.	.	.	.	12ff#	.
.	.	.	.	12aaJ	.
*	*	*	*	*v	*v
=18	=18	=18	=18	=18
4C#	4e	4a	.	12eeL
.	.	.	.	12cc#
.	.	.	.	12aJ
4r	4r	4r	.	12AL
.	.	.	.	12cc#
.	.	.	.	12eeJ
=19	=19	=19	=19	=19
4B	4e	4g#X	.	(12ddL
.	.	.	.	12ee
.	.	.	.	12ddJ)
4A	4e	4a	.	12cc#L
.	.	.	.	12b
.	.	.	.	12aJ
=20	=20	=20	=20	=20
4E	4e	4b	.	12g#XL
.	.	.	.	12a
.	.	.	.	12bJ
4r	4r	4r	.	12eL
.	.	.	.	12ee
.	.	.	.	12gg#XJ
=21	=21	=21	=21	=21
4c#	4r	[2ee	.	12aaL
.	.	.	.	12ee
.	.	.	.	12cc#J
4G#X	12dL	.	.	12bL
.	12c#	.	.	12cc#
.	12BJ	.	.	12ddJ
=22	=22	=22	=22	=22
4A	4A	2ee_	.	12cc#L
.	.	.	.	12b
.	.	.	.	12aJ
4E	4G#X	.	.	12bL
.	.	.	.	12ee
.	.	.	.	12gg#XJ
=23	=23	=23	=23	=23
4c#	4r	2ee_	.	12aaL
.	.	.	.	12ee
.	.	.	.	12cc#J
4G#X	12dL	.	.	12bL
.	12c#	.	.	12cc#
.	12BJ	.	.	12ddJ
=24	=24	=24	=24	=24
4A	4A	2ee_	.	12cc#L
.	.	.	.	12b
.	.	.	.	12aJ
4E	4G#X	.	.	12bL
.	.	.	.	12ee
.	.	.	.	12gg#XJ
=25	=25	=25	=25	=25
4C#	4A	4ee]	.	12aaL
.	.	.	.	12gg#X
.	.	.	.	12ff#J
4C#	4A	4e	.	12eeL
.	.	.	.	12dd
.	.	.	.	12cc#J
=26	=26	=26	=26	=26
4D	2A	2f#	.	(12bL
.	.	.	.	12dd
.	.	.	.	12cc#J)
4D	.	.	.	12bL
.	.	.	.	12dd
.	.	.	.	12ff#J
=27	=27	=27	=27	=27
4E	2G#X	2B	.	(12eeL
.	.	.	.	12ff#
.	.	.	.	12eeJ)
4E	.	.	.	12ddL
.	.	.	.	12cc#
.	.	.	.	12ddJ
=28	=28	=28	=28	=28
4F#	[2A	2A	.	12b#XL
.	.	.	.	12cc#
.	.	.	.	12cc#J
4F#	.	.	.	12cc#L
.	.	.	.	12ee
.	.	.	.	12gg#XJ
=29	=29	=29	=29	=29
4C#	2A_	2e	.	12aaL
.	.	.	.	12gg#X
.	.	.	.	12ff#J
4C#	.	.	.	12eeL
.	.	.	.	12dd
.	.	.	.	12cc#J
=30	=30	=30	=30	=30
4D	2A_	2f#	.	(12bL
.	.	.	.	12dd
.	.	.	.	12cc#J)
4D	.	.	.	12bL
.	.	.	.	12dd
.	.	.	.	12ff#J
=31	=31	=31	=31	=31
4E	4A]	(4c#	.	12eeL
.	.	.	.	12dd
.	.	.	.	12cc#J
4E	(12G#XL	4d)	.	12bL
.	12A	.	.	12a
.	12BJ)	.	.	12g#XJ
=32	=32	=32	=32	=32
8AL	4A	4c#	.	4a
8GJ	.	.	.	.
8F#L	4r	8r	.	8r
8EJ	.	8A	.	8a
=33	=33	=33	=33	=33
8F#L	8r	8dL	.	8ddL
8DJ	4d	8f#J	.	8ff#J
8EL	.	8gL	.	8ggL
8F#J	8d	8aJ	.	8aaJ
=34	=34	=34	=34	=34
4G	4d	(8a#XL	.	(8aa#XL
.	.	8bJ)	.	8bbJ)
4E	8r	8g'L	.	8gg'L
.	8g	8e'J	.	8ee'J
=35	=35	=35	=35	=35
4.A	(8f#L	(8dL	.	(8ddL
.	8eJ)	8c#J)	.	8cc#J)
.	8d'L	8B'L	.	8b'L
8G	8c#'J	8A'J	.	8a'J
=36	=36	=36	=36	=36
*	*	*	*	*^
(8GL	4d	4d	.	4.dd	4r
8F#J)	.	.	.	.	.
8E'L	4r	8r	.	.	8r
8D'J	.	8d	.	8a	8f#
=37	=37	=37	=37	=37	=37
(8EL	8r	(8c#L	.	2a	8gL
8DJ	8A	8dJ	.	.	8f#J
8EL	4A	8c#L	.	.	8gL
8C#J)	.	8eJ)	.	.	8eJ
=38	=38	=38	=38	=38	=38
(8DL	8r	(8dL	.	2a	8f#L
8C#J	8A	8AJ	.	.	8eJ
8DL	4A	8dL	.	.	8f#L
8BBJ)	.	8BJ)	.	.	8dJ
=39	=39	=39	=39	=39	=39
4AA	4A	(8c#L	.	2a	(8eL
.	.	8BJ)	.	.	8dJ)
4AA	4A	(8c#L	.	.	(8eL
.	.	8dJ)	.	.	8f#J)
=40	=40	=40	=40	=40	=40
8AL	4A	4c#	.	4a	4e
8GJ	.	.	.	.	.
8F#L	4r	8r	.	8r	4r
8EJ	.	8A	.	8a	.
*	*	*	*	*v	*v
=41	=41	=41	=41	=41
8F#L	8r	8dL	.	8ddL
8DJ	4d	8f#J	.	8ff#J
8EL	.	8gL	.	8ggL
8F#J	8d	8aJ	.	8aaJ
=42	=42	=42	=42	=42
4G	4d	(8a#XL	.	(8aa#XL
.	.	8bJ)	.	8bbJ)
4E	8r	8g'L	.	8gg'L
.	8g	8e'J	.	8ee'J
=43	=43	=43	=43	=43
4.A	(8f#L	(8dL	.	(8ddL
.	8eJ)	8c#J)	.	8cc#J)
.	8d'L	8B'L	.	8b'L
8G	8c#'J	8A'J	.	8a'J
=44	=44	=44	=44	=44
*	*	*	*	*^
(8GL	4d	4d	.	4.dd	4r
8F#J)	.	.	.	.	.
8E'L	4r	8r	.	.	8r
8D'J	.	8d	.	8a	8f#
=45	=45	=45	=45	=45	=45
(8EL	8r	(8c#L	.	2a	8gL
8DJ	8A	8dJ	.	.	8f#J
8EL	4A	8c#L	.	.	8gL
8C#J)	.	8eJ)	.	.	8eJ
=46	=46	=46	=46	=46	=46
(8DL	8r	(8dL	.	2a	8f#L
8C#J	8A	8AJ	.	.	8eJ
8DL	4A	8dL	.	.	8f#L
8BBJ)	.	8BJ)	.	.	8dJ
=47	=47	=47	=47	=47	=47
4AA	4A	(8c#L	.	2a	(8eL
.	.	8dJ)	.	.	8f#J)
4AA	4G	(8eL	.	.	(8gL
.	.	8c#J)	.	.	8eJ)
=48	=48	=48	=48	=48	=48
4D	4F#	4d	.	4a	4d
4r	4r	4r	.	8r	4r
.	.	.	.	8a	.
*	*	*	*	*v	*v
=49	=49	=49	=49	=49
4D	4Fn	8r	.	(4.aa
.	.	(8d	.	.
4r	4r	8fnL	.	.
.	.	8dJ)	.	8bb-X)
=50	=50	=50	=50	=50
4A	4A	8r	.	(4dd
.	.	(8e	.	.
4r	4r	8gL	.	4cc#)
.	.	8eJ)	.	.
=51	=51	=51	=51	=51
4D	4A	8r	.	(4.dd
.	.	(8fn	.	.
4r	4r	8aL	.	.
.	.	8fJ)	.	16eeLL
.	.	.	.	16ffnJJ)
=52	=52	=52	=52	=52
4AA	4A	8r	.	4ee
.	.	(8c#	.	.
4r	4r	8eL	.	8r
.	.	8c#J)	.	8a
=53	=53	=53	=53	=53
4A	4c#	8r	.	4.gg
.	.	(8e	.	.
4r	4r	8aL	.	.
.	.	8c#J)	.	8ee
=54	=54	=54	=54	=54
4AA	4E	8r	.	(8cc#L
.	.	(8c#	.	8eeJ
4r	4r	8eL	.	8aL
.	.	8gJ)	.	8b-XJ)
=55	=55	=55	=55	=55
4A	4A	8r	.	(4.e
.	.	(8c#	.	.
4r	4r	8AL	.	.
.	.	8c#J)	.	16fnLL
.	.	.	.	16gJJ)
=56	=56	=56	=56	=56
4D	4A	8r	.	4fn
.	.	(8d	.	.
4r	4r	8AL	.	8r
.	.	8fnJ)	.	8dd
=57	=57	=57	=57	=57
4G	4G	8r	.	(4.bb-X
.	.	(8d	.	.
4r	4r	8gL	.	.
.	.	8fnJ)	.	8dd)
=58	=58	=58	=58	=58
4Cn	4G	8r	.	(4.ccn
.	.	(8e	.	.
4r	4r	8gL	.	.
.	.	8eJ)	.	8bb-X)
=59	=59	=59	=59	=59
4Fn	4Fn	8r	.	(4.aa
.	.	(8cn	.	.
4r	4r	8fnL	.	.
.	.	8eJ)	.	8ccn)
=60	=60	=60	=60	=60
4BB-X	4Fn	8r	.	(4.b-X
.	.	(8d	.	.
4r	4r	8fnL	.	.
.	.	8eJ)	.	8aa)
=61	=61	=61	=61	=61
4E	4E	8r	.	(4.gg
.	.	(8B-X	.	.
4r	4r	8eL	.	.
.	.	8dJ)	.	8b-X)
=62	=62	=62	=62	=62
4AA	4E	8r	.	(4.a
.	.	(8c#	.	.
4r	8r	8eL	.	.
.	8e	8c#J)	.	8gg)
=63	=63	=63	=63	=63
4D	4e	(4A	.	4gg
4GG#X	4d	4B)	.	(8.ffnTL
.	.	.	.	32eeLL
.	.	.	.	32ffJJJ)
=64	=64	=64	=64	=64
4AA	[2A	4c#	.	4ee
4C#	.	8r	.	8r
.	.	8e	.	8g
=65	=65	=65	=65	=65
4D	4A]	4e	.	4g
4GG#X	4B	(8.dL	.	(8.fnTL
.	.	32c#LL	.	32eLL)
.	.	32dJJJ)	.	32fJJJ
=66	=66	=66	=66	=66
4AA	4E	4c#	.	4e
4r	4r	8r	.	8r
.	.	8A	f	8a
=67	=67	=67	=67	=67
!	!	!	!	!
8r	8r	8dL	.	8ddL
8D	4d	8f#J	.	8ff#J
8EL	.	8gL	.	8ggL
8F#J	8d	8aJ	.	8aaJ
=68	=68	=68	=68	=68
4G	4d	(8a#XL	.	(8aa#XL
.	.	8bJ)	.	8bbJ)
4E	8r	8g'L	.	8gg'L
.	8g	8e'J	.	8ee'J
=69	=69	=69	=69	=69
4.A	(8f#L	(8dL	.	(8ddL
.	8eJ)	8c#J)	.	8cc#J)
.	8d'L	8B'L	.	8b'L
8G	8c#'J	8A'J	.	8a'J
=70	=70	=70	=70	=70
*	*	*	*	*^
(8GL	4d	4d	.	4dd	4r
8F#J)	.	.	.	.	.
8E'L	4r	8r	.	8r	8r
8D'J	.	8d	.	8a	8f#
=71	=71	=71	=71	=71	=71
8EL	8r	(8c#L	.	2a	8gL
8DJ	8A	8dJ	.	.	8f#J
8EL	4A	8c#L	.	.	8gL
8C#J	.	8eJ)	.	.	8eJ
=72	=72	=72	=72	=72	=72
8DL	8r	8dL	.	2a	8f#L
8C#J	8A	8AJ	.	.	8eJ
8DL	4A	8dL	.	.	8f#L
8DJ	.	8BJ	.	.	8dJ
=73	=73	=73	=73	=73	=73
4AA	4A	8c#L	.	2a	(8eL
.	.	8BJ	.	.	8dJ)
4AA	4G	8c#L	.	.	(8eL
.	.	8dJ	.	.	8f#J)
=74	=74	=74	=74	=74	=74
4D	4F#	4A 4d	.	4a	4d
4r	4r	4r	.	8r	4r
.	.	.	.	16ff#LL	.
.	.	.	.	16ggJJ	.
=75	=75	=75	=75	=75	=75
4F#	4r	[2aa	.	16aaLL	4d
.	.	.	.	16gg	.
.	.	.	.	16ff#	.
.	.	.	.	16eeJJ	.
4D	4d	.	.	16ddLL	4r
.	.	.	.	16cc#	.
.	.	.	.	16b	.
.	.	.	.	16aJJ	.
*	*	*	*	*v	*v
=76	=76	=76	=76	=76
4E	4c#	2aa_	.	16gLL
.	.	.	.	16f#
.	.	.	.	16e
.	.	.	.	16dJJ
4E	4G	.	.	4c#
=77	=77	=77	=77	=77
4C#	4r	2aa_	.	16ggLL
.	.	.	.	16ff#
.	.	.	.	16ee
.	.	.	.	16ddJJ
4AA	4e	.	.	16cc#LL
.	.	.	.	16b
.	.	.	.	16a
.	.	.	.	16gJJ
=78	=78	=78	=78	=78
4D	4d	2aa_	.	16f#LL
.	.	.	.	16e
.	.	.	.	16d
.	.	.	.	16c#JJ
4D	4F#	.	.	4d
=79	=79	=79	=79	=79
4F#	4r	16aaLL]	.	[2aa
.	.	16gg	.	.
.	.	16ff#	.	.
.	.	16eeJJ	.	.
4D	4d	16ddLL	.	.
.	.	16cc#	.	.
.	.	16b	.	.
.	.	16aJJ	.	.
=80	=80	=80	=80	=80
4E	4c#	16gLL	.	2aa_
.	.	16f#	.	.
.	.	16e	.	.
.	.	16dJJ	.	.
4E	4G	4c#	.	.
=81	=81	=81	=81	=81
4C#	4r	16ggLL	.	2aa_
.	.	16ff#	.	.
.	.	16ee	.	.
.	.	16ddJJ	.	.
4AA	4e	16cc#LL	.	.
.	.	16b	.	.
.	.	16a	.	.
.	.	16gJJ	.	.
=82	=82	=82	=82	=82
4D	4d	16f#LL	.	2aa_
.	.	16e	.	.
.	.	16d	.	.
.	.	16c#JJ	.	.
4D	4F#	4d	.	.
=83	=83	=83	=83	=83
4F#	2F#	4r	.	16aaLL]
.	.	.	.	16gg
.	.	.	.	16ff#
.	.	.	.	16eeJJ
4FF#	.	[4d	.	16ddLL
.	.	.	.	16cc#
.	.	.	.	16b
.	.	.	.	16aJJ
=84	=84	=84	=84	=84
4GG	2G	4d]	.	16bLL
.	.	.	.	16cc#
.	.	.	.	16dd
.	.	.	.	16eeJJ
4G	.	[4e	.	16ff#LL
.	.	.	.	16gg
.	.	.	.	16aa
.	.	.	.	16bbJJ
=85	=85	=85	=85	=85
4A	2c#	4e]	.	16ggLL
.	.	.	.	16ff#
.	.	.	.	16ee
.	.	.	.	16ddJJ
4AA	.	4e	.	16cc#LL
.	.	.	.	16b
.	.	.	.	16a
.	.	.	.	16gJJ
=86	=86	=86	=86	=86
4BB	8dL	4d	.	16f#LL
.	.	.	.	16d
.	8BJ	.	.	16e
.	.	.	.	16f#JJ
8AAL	8AL	8c#L	.	16gLL
.	.	.	.	16a
8GGJ	8GJ	8BJ	.	16b
.	.	.	.	16cc#JJ
=87	=87	=87	=87	=87
4FF#	4F#	4A	.	16ddLL
.	.	.	.	16ee
.	.	.	.	16ff#
.	.	.	.	16ggJJ
4F#	[4d	4a	.	16aaLL
.	.	.	.	16bb
.	.	.	.	16ccc#
.	.	.	.	16dddJJ
=88	=88	=88	=88	=88
4G	4d]	16gLL	.	16bbLL
.	.	16a	.	16ccc#
.	.	16b	.	16ddd
.	.	16aJJ	.	16ccc#JJ
4G	4B	16bLL	.	16dddLL
.	.	16g	.	16bb
.	.	16f#	.	16aa
.	.	16eJJ	.	16ggJJ
=89	=89	=89	=89	=89
4A	4A	4d	.	4ff#
4AA	4G	(8.c#tL	.	(8.eeTL
.	.	32BLL	.	32ddLL
.	.	32c#JJJ)	.	32eeJJJ)
=90	=90	=90	=90	=90
4D	4F#	4d	.	4dd
4r	4r	4r	.	8r
.	.	.	.	8a
=91	=91	=91	=91	=91
2r	2r	8r	.	8ddL
.	.	8d	p	8ff#J
.	.	8eL	.	8ggL
.	.	8f#J	.	8aaJ
=92	=92	=92	=92	=92
2r	2r	4g	.	(8aa#XL
.	.	.	.	8bbJ)
.	.	4e	.	8ggL
.	.	.	.	8eeJ
=93	=93	=93	=93	=93
2r	2r	4.a	.	(8ddL
.	.	.	.	8cc#J)
.	.	.	.	8bL
.	.	8g	.	8aJ
=94	=94	=94	=94	=94
2r	2r	(8gL	.	4dd
.	.	8f#J)	.	.
.	.	8eL	.	8r
.	.	8dJ	.	8a
=95	=95	=95	=95	=95
2r	2A	2c#	.	(8aaL
.	.	.	.	8ggJ)
.	.	.	.	8ff#L
.	.	.	.	8ggJ
=96	=96	=96	=96	=96
4r	4B	4d	.	4ff#
8r	8r	8r	.	8r
8B	8b	8dd	.	8ff#
=97	=97	=97	=97	=97
4G	4g	4b	.	4ee
4A	4e	4g	.	4A 4e 4cc#
=98	=98	=98	=98	=98
4D	4d	4f#	.	4A 4f# 4dd
8r	8r	8r	.	8r
8AA	8A	8A	.	8A
=99	=99	=99	=99	=99
8DL	8dL	8dL	.	8dL
8F#J	8f#J	8f#J	.	8f#J
8GL	8gL	8gL	.	8gL
8AJ	8aJ	8aJ	.	8aJ
=100	=100	=100	=100	=100
(8A#XL	(8a#XL	(8a#XL	.	(8a#XL
8BJ)	8bJ)	8bJ)	.	8bJ)
8G'L	8g'L	8g'L	.	8g'L
8E'J	8e'J	8e'J	.	8e'J
=101	=101	=101	=101	=101
(8DL	(8dL	(8dL	.	(8dL
8C#J)	8c#J)	8c#J)	.	8c#J)
8BB'L	8B'L	8B'L	.	8B'L
8AA'J	8A'J	8A'J	.	8A'J
=102	=102	=102	=102	=102
4D	4d	4d	.	4d
4r	4r	4r	.	4r
==	==	==	==	==
*-	*-	*-	*-	*-
!!!system-decoration: [(s1,s2,s3,s4)]
